X:1
T:Title
%%score { ( 1 3 ) | ( 2 4 ) }
L:1/8
M:4/4
K:G
V:1 treble nm="Grand Piano"
V:3 treble 
V:2 bass 
V:4 bass 
V:1
 z4 z2[Q:1/4=104] D2 | G2 GG [FA]2 DD | B4 G2 D2 | G2 GG [FA]2 DD | B6 d2 | d2 BB B2 [DFA]2 | %6
 G2 z2 z4 | D2 GA [GB][GB] [CDA]2 |[M:3/4] [B,DG]6 |[M:1/4] d2 |[M:4/4] d3 B [DG]DEF | %11
 G2 A2 D2 d2 | d3 B [DG]DEF | G2 B2 [FA]2 [Fd]2 | d3 B [DG]DEF | G2 A2 B2 [Ge]2 | %16
 [Gd]3 [Ge] [Gd][DB][B,DG][DGB] |[M:7/8] A- A3 z z2 |] %18
V:2
 z4 z2 [G,B,]2 | [G,B,D]2 [G,B,D][G,B,D] [D,C]2 [D,F,][D,F,] | [G,D]4 [G,B,D]2 [G,B,]2 | %3
 [G,B,D]2 [G,B,D][G,B,D] [D,C]2 [D,F,][D,F,] | [G,D]6 [G,B,G]2 | %5
 [G,B,G]2 [G,DG][G,DG] [G,DG]2[K:bass] D,C, | [B,,G,]2 [C,G,C]2 [C,E,C]2 [C,G,C]2 | %7
 [D,G,B,]2 [D,B,D][D,CD] [D,D][D,D] D,2 |[M:3/4] G,,6 |[M:1/4][K:treble] [G,B,G]2 | %10
[M:4/4] [G,B,G]3[K:bass] [G,D] [B,,G,][B,,G,][D,CD][D,CD] | %11
 [G,B,D]2 [D,CD]2 [G,B,]2[K:treble] [G,B,G]2 | [G,B,G]3[K:bass] [G,D] [B,,G,][B,,G,][D,CD][D,CD] | %13
 [G,B,D]2 [G,DG]2[K:bass] [D,D]2 [D,C]2 | [G,B,G]3 [G,D][K:bass] [B,,G,][B,,G,][D,CD][D,CD] | %15
 [G,B,D]2[K:treble] [G,CD]2 [G,DG]2[K:bass] [C,C]2 | [D,B,]3 [D,C] [D,B,][D,G,]D,D, | %17
[M:7/8] z2 C2 G,,3 |] %18
V:3
 x8 | x8 | x8 | x8 | x8 | x8 | z D E2 G2 E2 | x8 |[M:3/4] x6 |[M:1/4] x2 |[M:4/4] x8 | x8 | x8 | %13
 x8 | x8 | x8 | x8 |[M:7/8] [DF]2 D2 [B,DG]3 |] %18
V:4
 x8 | x8 | x8 | x8 | x8 | x6[K:bass] x2 | x8 | x8 |[M:3/4] x6 |[M:1/4][K:treble] x2 | %10
[M:4/4] x3[K:bass] x5 | x6[K:treble] x2 | x3[K:bass] x5 | x4[K:bass] x4 | x4[K:bass] x4 | %15
 x2[K:treble] x4[K:bass] x2 | x8 |[M:7/8] D,- D,3 z z2 |] %18

